X: 37412
T: Sleigh Ride
R: polka
M: 2/4
K: Amajor
de d/B/G|AB A/F/E|D4-|DE FA|
de d/B/A/G/|AA/B/ A/G/E|G4-|G.d .d.d|
de d/B/G|AB A/F/E|D4-|DE FA|
de d/B/A/G/|AA/B/ A/G/E|G4-|Gz||
BD/E/ BD/E/|Bc A2-|AB A/F/D|G4-|
GA G/E/C/E/|GB Ac|F4-|F3||
AC/D/ AC/D/|AB G2-|GA G/E/C|F4-|
FA E/D/A,|DE/A/ E/D/A,|DE/A/ dA|D||

